svgs/duotone/poo.svg

<svg xmlns="http://www.w3.org/2000/svg" viewBox="0 0 512 512"><!-- Font Awesome Pro 6.0.0-alpha2 by @fontawesome - https://fontawesome.com License - https://fontawesome.com/license (Commercial License) --><defs><style>.fa-secondary{opacity:.4}</style></defs><path d="M192 256C174.25 256 160 270.25 160 288S174.25 320 192 320S224 305.75 224 288S209.75 256 192 256ZM320 256C302.25 256 288 270.25 288 288S302.25 320 320 320S352 305.75 352 288S337.75 256 320 256Z" class="fa-secondary"/><path d="M451.375 369.125C468.75 356 480 335.375 480 312C480 272.25 447.75 240 408 240H393.875C407.25 228.25 416 211.25 416 192C416 156.75 387.25 128 352 128H346.125C349.75 117.875 352 107.25 352 96C352 43 309 0 256 0C250.75 0 245.75 0.75 240.875 1.5C250.25 14.625 256 30.625 256 48C256 92.25 220.25 128 176 128H160C124.75 128 96 156.75 96 192C96 211.25 104.75 228.25 118.125 240H104C64.25 240 32 272.25 32 312C32 335.375 43.25 356 60.625 369.125C26.25 374.625 0 404.125 0 440C0 479.75 32.25 512 72 512H440C479.75 512 512 479.75 512 440C512 404.125 485.75 374.625 451.375 369.125ZM192 256C209.75 256 224 270.25 224 288S209.75 320 192 320S160 305.75 160 288S174.25 256 192 256ZM351.479 395C340.98 422.875 292.992 448 256 448C219.01 448 171.02 422.875 160.521 395C158.523 389.75 162.521 384 168.27 384H343.73C349.479 384 353.479 389.75 351.479 395ZM320 320C302.25 320 288 305.75 288 288S302.25 256 320 256S352 270.25 352 288S337.75 320 320 320Z" class="fa-primary"/></svg>

<svg xmlns="http://www.w3.org/2000/svg" viewBox="0 0 512 512"><!--! Font Awesome Pro 6.3.0 by @fontawesome - https://fontawesome.com License - https://fontawesome.com/license (Commercial License) Copyright 2023 Fonticons, Inc. --><defs><style>.fa-secondary{opacity:.4}</style></defs><path class="fa-primary" d="M451.4 369.1C468.8 356 480 335.4 480 312c0-39.75-32.25-72-72-72h-14.12C407.3 228.2 416 211.2 416 191.1c0-35.25-28.75-63.1-64-63.1h-5.875C349.8 117.9 352 107.2 352 95.1c0-53-43-96-96-96c-5.25 0-10.25 .75-15.12 1.5C250.3 14.62 256 30.62 256 47.1c0 44.25-35.75 80-80 80H160c-35.25 0-64 28.75-64 63.1c0 19.25 8.75 36.25 22.12 48H104C64.25 239.1 32 272.3 32 312c0 23.38 11.25 44 28.62 57.13C26.25 374.6 0 404.1 0 440C0 479.8 32.25 512 72 512h368c39.75 0 72-32.25 72-72C512 404.1 485.8 374.6 451.4 369.1zM192 256c17.75 0 32 14.25 32 32s-14.25 32-32 32S160 305.8 160 288S174.3 256 192 256zM351.5 395C340.1 422.9 292.1 448 256 448c-36.99 0-84.98-25.12-95.48-53C158.5 389.8 162.5 384 168.3 384h175.5C349.5 384 353.5 389.8 351.5 395zM320 320c-17.75 0-32-14.25-32-32s14.25-32 32-32s32 14.25 32 32S337.8 320 320 320z"/><path class="fa-secondary" d="M192 256C174.3 256 160 270.3 160 288s14.25 32 32 32s32-14.25 32-32S209.8 256 192 256zM320 256c-17.75 0-32 14.25-32 32s14.25 32 32 32s32-14.25 32-32S337.8 256 320 256z"/></svg>
